dist/assets/images/ico/ico_text.svg

<svg width="20" height="20" viewBox="0 0 20 20" fill="none" xmlns="http://www.w3.org/2000/svg">
<rect x="0.25" y="0.250122" width="19.5" height="19.5" rx="0.75" fill="#D6CBB6"/>
<rect x="0.25" y="0.250122" width="19.5" height="19.5" rx="0.75" stroke="url(#paint0_linear_1027_8808)" stroke-width="0.5"/>
<rect x="0.25" y="0.250122" width="19.5" height="19.5" rx="0.75" stroke="#534731" stroke-width="0.5"/>
<path d="M7.23268 12.8422L6.71314 12.803C6.26673 12.7676 6.04352 12.6538 6.04352 12.4615L6.92096 10.1463H10.958L11.4698 11.3667L12.1279 10.7113L12.4127 10.4249L12.4473 10.3896L9.51865 3.00012H9.06838L5.28538 12.1476C5.1122 12.5557 4.85435 12.7755 4.51954 12.803L4 12.8422V13.2464C4.8659 13.2189 5.37774 13.2071 5.53168 13.2071C5.65098 13.2071 6.2167 13.2189 7.22883 13.2464L7.23268 12.8422ZM8.94139 5.60595L10.7078 9.60864H7.16341L8.94139 5.60595Z" fill="#212121"/>
<path d="M12.5897 11.0763L14.1753 12.697L11.4737 15.3851C11.2543 15.6048 10.9657 15.7147 10.6732 15.7147C10.3807 15.7147 10.0921 15.6048 9.87271 15.3851C9.43398 14.9417 9.43398 14.2196 9.87271 13.7801L12.5897 11.0763ZM12.5935 10.2483L12.1856 10.6564L9.46862 13.3602C9.1415 13.6859 8.96448 14.1215 8.96448 14.5845C8.96448 15.0476 9.1415 15.4832 9.46477 15.805C9.78804 16.1268 10.2152 16.3073 10.6693 16.3073C11.1234 16.3073 11.5545 16.1307 11.8739 15.805L14.5755 13.1169L14.995 12.7009L14.5832 12.281L12.9976 10.6603L12.5935 10.2483Z" fill="#212121"/>
<path d="M15.2951 8.81203C15.5838 8.81203 15.8763 8.92191 16.0956 9.14166C16.5343 9.5851 16.5343 10.3072 16.0956 10.7467L14.4062 12.4576L12.8206 10.8369L14.4985 9.13774C14.7179 8.91798 15.1 8.81619 15.3924 8.81619M15.2951 8.2234C14.841 8.2234 14.41 8.39999 14.0906 8.7257L12.4127 10.4288L12.0009 10.8448L12.4088 11.2607L13.9944 12.8814L14.4023 13.2974L14.8102 12.8854L16.4997 11.1744C16.823 10.8526 17 10.417 17 9.95398C17 9.49092 16.823 9.05533 16.4959 8.72962C16.1726 8.40784 15.8466 8.2234 15.3924 8.2234H15.2951Z" fill="#212121"/>
<path d="M6.30905 13.8355C6.30905 13.8355 6.5746 16.0757 8.5373 16.8567C9.1492 17.1157 10.6232 17.1078 11.7507 16.115C12.7552 14.9652 11.9855 13.8154 11.9855 13.8154C11.9855 13.8154 11.5891 13.2699 11.1812 13.1444C10.7886 13.0266 9.95352 12.7794 9.19538 13.6427C8.07549 14.5806 7.3212 14.2667 6.36679 13.9645L6.30905 13.8355Z" fill="#212121"/>
<defs>
<linearGradient id="paint0_linear_1027_8808" x1="10" y1="0.00012207" x2="10" y2="20.0001" gradientUnits="userSpaceOnUse">
<stop stop-color="#A39C90"/>
<stop offset="0.53006" stop-color="#F2F1F0"/>
<stop offset="1" stop-color="#A39C90"/>
</linearGradient>
</defs>
</svg>

<svg width="20" height="20" fill="none" xmlns="http://www.w3.org/2000/svg"><rect x=".25" y=".25" width="19.5" height="19.5" rx=".75" fill="#D6CBB6"/><rect x=".25" y=".25" width="19.5" height="19.5" rx=".75" stroke="url(#paint0_linear_1027_8808)" stroke-width=".5"/><rect x=".25" y=".25" width="19.5" height="19.5" rx=".75" stroke="#534731" stroke-width=".5"/><path d="M7.233 12.842l-.52-.039c-.446-.035-.67-.15-.67-.342l.878-2.315h4.037l.512 1.22.658-.655.285-.286.034-.035L9.52 3h-.45l-3.784 9.148c-.173.408-.43.627-.765.655l-.52.04v.403a77.515 77.515 0 011.532-.039c.119 0 .685.012 1.697.04l.004-.405zM8.94 5.606l1.767 4.003H7.163l1.778-4.003zm3.65 5.47l1.585 1.621-2.701 2.688c-.22.22-.508.33-.8.33-.293 0-.582-.11-.801-.33a1.143 1.143 0 010-1.605l2.717-2.704zm.004-.828l-.408.408-2.717 2.704a1.714 1.714 0 00-.505 1.225 1.71 1.71 0 001.705 1.722c.454 0 .886-.176 1.205-.502l2.701-2.688.42-.416-.412-.42-1.585-1.62-.404-.413z" fill="#212121"/><path d="M15.295 8.812c.289 0 .581.11.8.33a1.143 1.143 0 010 1.605l-1.689 1.71-1.585-1.62 1.678-1.7c.219-.219.601-.32.893-.32m-.097-.594c-.454 0-.885.177-1.204.503l-1.678 1.703-.412.416.408.416 1.585 1.62.408.416.408-.412 1.69-1.71c.323-.322.5-.758.5-1.221 0-.463-.177-.899-.504-1.224-.323-.322-.65-.507-1.104-.507h-.097zM6.31 13.835s.265 2.24 2.227 3.022c.612.259 2.086.25 3.214-.742 1.004-1.15.235-2.3.235-2.3s-.397-.545-.805-.67c-.392-.118-1.227-.366-1.986.498-1.12.938-1.874.624-2.828.321l-.058-.129z" fill="#212121"/><defs><linearGradient id="paint0_linear_1027_8808" x1="10" y1="0" x2="10" y2="20" gradientUnits="userSpaceOnUse"><stop stop-color="#A39C90"/><stop offset=".53" stop-color="#F2F1F0"/><stop offset="1" stop-color="#A39C90"/></linearGradient></defs></svg>
